<?xml version="1.0" encoding="UTF-8"?>
<map version="1.10" tiledversion="1.11.2" orientation="orthogonal" renderorder="right-down" width="40" height="30" tilewidth="16" tileheight="16" infinite="0" nextlayerid="5" nextobjectid="2">
 <editorsettings>
  <export target="overworld.json" format="json"/>
 </editorsettings>
 <tileset firstgid="1" source="../../../../../Downloads/tileset.tsx"/>
 <layer id="1" name="Background" width="40" height="30">
  <data encoding="csv">
109,108,106,108,106,109,107,108,108,108,107,106,110,107,110,106,109,107,107,106,109,108,107,110,107,107,109,109,110,107,106,109,108,110,109,106,106,108,106,110,
106,108,107,106,109,106,110,110,106,109,109,109,107,108,107,109,108,109,106,106,107,109,107,110,107,106,106,106,109,107,106,109,110,110,109,107,107,107,109,109,
109,108,107,109,107,110,108,107,106,109,108,110,106,106,110,109,108,108,106,110,109,108,109,108,109,107,106,108,107,106,106,108,109,109,106,110,106,108,109,106,
109,109,109,107,107,110,106,109,108,109,107,110,109,107,108,106,108,110,108,107,107,107,108,107,107,110,109,106,107,107,110,109,107,106,108,110,106,110,110,110,
106,107,107,110,110,109,107,106,108,109,107,110,107,106,110,110,109,109,106,106,110,108,108,110,106,108,109,109,108,106,110,108,107,107,110,106,106,109,110,109,
106,107,110,108,109,108,106,110,108,110,108,108,107,110,110,108,107,108,109,109,107,110,107,106,106,109,109,109,110,107,108,108,109,108,107,107,110,110,109,107,
106,106,109,107,107,106,109,110,108,110,109,107,106,107,108,106,110,107,110,108,106,107,106,110,106,106,106,106,107,107,106,108,110,107,108,109,109,108,109,108,
106,106,106,110,109,110,106,106,108,109,108,109,108,108,106,109,106,110,107,108,107,108,106,106,109,106,110,110,110,110,110,110,107,107,106,110,109,107,106,107,
106,107,106,106,110,109,110,108,107,107,109,107,110,109,107,109,110,108,107,107,110,109,106,109,107,107,109,107,110,108,107,107,110,108,109,106,107,110,109,108,
107,108,106,109,108,107,107,106,107,107,109,106,110,108,110,109,107,106,110,107,106,107,108,107,108,109,107,107,108,106,107,107,107,110,109,107,106,106,108,110,
108,106,106,110,107,108,110,106,107,108,110,110,106,108,107,107,107,108,109,108,110,108,107,107,108,109,108,110,106,107,106,110,109,107,108,107,109,110,107,109,
106,108,106,110,107,107,110,109,106,110,110,107,110,106,108,110,106,107,109,106,108,106,108,109,107,107,107,106,108,108,109,108,106,110,109,109,106,106,107,108,
106,109,107,108,107,106,110,107,110,109,109,110,106,107,106,108,107,108,106,106,110,106,108,106,109,107,109,107,110,110,107,108,109,108,108,109,109,107,109,106,
106,110,110,107,107,107,110,108,106,106,109,110,107,106,110,107,108,108,107,110,110,106,107,108,109,107,110,107,109,108,106,107,109,108,110,108,108,110,106,106,
108,108,108,107,107,108,110,109,106,109,109,110,108,109,107,107,110,110,106,107,110,109,107,110,110,107,106,110,107,110,106,106,109,109,109,107,108,106,110,107,
110,106,106,106,108,106,106,107,109,110,107,106,109,107,107,107,106,107,109,108,108,108,108,107,109,108,106,107,106,107,110,110,109,110,106,107,107,108,110,106,
106,107,106,107,108,107,107,110,110,109,107,109,106,107,107,106,109,107,109,106,109,109,110,107,109,108,109,106,108,106,106,106,107,110,106,109,106,106,109,106,
107,110,107,106,107,109,110,109,109,107,108,108,109,108,106,109,107,110,108,107,108,107,109,106,107,109,107,106,110,108,107,110,110,106,108,106,110,109,108,110,
108,109,106,109,109,109,110,110,108,108,108,109,109,109,110,106,106,106,108,107,109,110,107,110,109,109,106,107,108,109,107,107,106,110,108,109,109,109,107,108,
110,106,109,106,107,106,107,109,107,110,109,108,110,110,108,108,109,110,106,110,106,110,109,110,108,110,107,109,110,107,109,106,109,108,106,110,108,108,109,109,
108,108,109,106,107,109,108,107,109,108,109,106,106,107,109,110,107,110,108,109,107,108,107,110,110,108,109,110,108,106,106,108,110,110,108,109,109,106,108,107,
110,109,107,109,109,108,106,106,110,109,110,108,106,109,110,107,107,110,106,106,110,107,109,108,108,106,106,108,108,110,109,107,107,106,108,108,108,108,107,107,
107,106,108,109,109,106,107,107,108,109,108,109,109,108,109,108,108,106,109,107,108,107,106,107,109,110,107,110,109,106,107,109,108,106,108,110,106,110,110,109,
106,107,106,107,109,106,108,110,107,107,109,107,108,107,107,106,109,107,108,109,109,107,106,108,109,106,109,109,109,108,106,109,106,107,107,109,110,108,109,108,
106,107,106,110,106,108,107,106,106,106,107,109,108,107,107,107,110,107,110,106,106,108,110,106,106,107,110,107,107,106,107,108,107,107,107,107,107,110,106,106,
107,108,106,109,109,109,110,106,106,110,106,106,106,110,106,106,106,109,107,106,107,107,108,108,106,108,109,107,106,109,108,110,110,107,106,108,106,109,107,107,
109,106,107,107,109,108,110,109,108,110,108,110,106,110,108,106,107,110,108,108,109,106,106,108,108,110,110,109,106,108,108,109,108,106,109,106,108,109,107,108,
110,106,108,110,109,110,108,106,106,110,110,110,108,110,107,106,109,108,106,110,106,109,108,106,109,109,108,110,109,108,109,107,109,110,106,109,110,108,108,107,
110,106,107,109,107,110,106,110,106,106,107,110,106,107,107,106,106,107,106,109,109,109,106,106,108,110,108,108,109,107,108,107,109,106,108,107,108,109,109,108,
109,107,110,108,110,109,108,108,106,107,108,110,106,109,110,110,107,110,108,107,106,110,109,109,106,110,107,110,106,110,107,106,106,108,108,110,109,110,107,110
</data>
 </layer>
 <layer id="2" name="Terrain" width="40" height="30">
  <data encoding="csv">
0,0,0,0,0,0,0,0,0,0,0,0,0,0,0,0,0,0,0,0,0,0,0,0,0,0,0,0,0,0,0,0,0,0,0,0,0,0,0,0,
0,0,0,0,0,0,0,0,0,0,0,0,0,0,0,0,0,0,0,0,0,0,0,0,0,0,0,0,0,0,0,0,0,0,0,0,0,0,0,0,
0,0,0,0,0,0,0,0,0,0,0,0,0,0,0,0,0,0,0,0,0,0,0,0,0,0,0,0,0,0,0,0,0,0,0,0,0,0,0,0,
0,0,73,0,0,0,0,0,0,0,0,6,0,0,0,0,0,0,0,0,0,0,0,0,0,0,0,0,39,0,0,0,0,0,0,0,0,8,0,0,
0,0,0,0,0,0,0,0,0,0,0,0,0,0,0,0,0,0,0,0,0,0,0,0,0,0,0,0,0,0,0,0,0,0,0,0,0,0,0,0,
0,0,0,0,0,0,238,239,240,0,0,0,0,0,0,0,0,0,0,0,0,0,0,0,0,0,0,0,0,0,0,0,0,0,0,0,0,0,0,0,
0,0,0,0,0,0,271,272,273,0,0,0,0,0,0,0,0,0,0,238,239,240,0,0,0,0,0,0,0,0,1,2,3,0,0,0,0,0,0,0,
0,0,0,0,0,0,304,305,306,0,0,0,0,0,0,0,0,0,0,271,272,273,0,0,0,0,0,0,0,0,34,35,36,0,0,0,0,0,0,0,
0,0,0,0,0,0,0,0,0,0,0,0,0,0,0,0,0,0,0,304,305,306,0,0,0,0,0,0,0,0,67,68,69,0,0,0,0,8,0,0,
0,39,7,72,0,0,0,0,0,0,0,0,0,0,0,0,0,0,0,0,0,0,0,0,0,0,0,0,0,0,0,0,0,0,0,0,0,0,0,0,
0,0,0,0,0,0,0,0,0,0,0,0,6,73,7,0,0,0,0,0,0,0,0,0,0,0,0,0,0,0,0,0,0,0,0,0,0,0,0,0,
0,0,0,0,0,0,0,0,0,0,0,0,0,0,0,0,0,0,0,0,0,0,0,0,0,0,0,0,0,0,0,0,0,0,0,0,0,0,0,0,
0,0,0,0,0,0,0,0,0,0,0,0,0,0,0,0,0,0,0,0,0,0,0,0,0,0,0,0,0,0,0,0,0,0,0,0,0,0,0,0,
0,0,0,0,100,101,102,0,0,0,0,0,0,0,0,0,0,0,0,0,0,0,0,0,0,0,0,0,0,0,0,0,0,0,0,0,0,0,0,0,
0,0,0,0,133,134,135,0,0,0,0,0,0,0,0,0,0,0,0,0,0,0,0,0,0,0,0,0,0,0,0,0,0,0,0,0,0,0,0,0,
0,0,0,0,166,167,168,0,0,0,0,0,0,0,0,0,0,0,100,101,102,0,0,0,0,238,239,240,0,0,0,0,0,0,0,0,0,0,0,0,
0,0,0,0,199,200,201,0,0,0,0,0,0,0,0,0,0,0,133,134,135,0,0,0,0,271,272,273,0,0,0,0,0,0,0,0,0,0,0,0,
0,0,0,0,232,233,234,0,0,0,0,0,0,0,0,0,0,0,166,167,168,0,0,0,0,304,305,306,0,0,0,0,0,0,0,0,0,0,0,0,
0,0,0,0,0,0,0,0,0,0,238,239,240,0,0,0,0,0,199,200,201,0,0,0,0,0,0,0,0,0,0,0,0,39,40,73,0,0,0,0,
0,0,0,0,0,0,0,0,0,0,271,272,273,0,0,0,0,0,232,233,234,0,0,0,0,0,0,0,0,0,0,0,0,0,0,0,0,0,0,0,
0,0,0,0,0,0,0,0,0,0,304,305,306,0,0,0,0,0,0,0,0,0,0,7,0,0,0,0,0,0,0,0,0,0,0,0,0,0,0,0,
0,0,0,0,0,0,0,0,0,0,0,0,0,0,0,0,0,0,0,0,0,0,0,0,0,0,0,0,0,0,0,0,0,0,0,0,0,0,0,0,
0,0,0,0,0,0,0,0,0,0,0,0,0,0,0,0,0,0,0,0,0,0,0,0,0,0,0,0,0,0,0,0,0,0,0,0,0,0,0,0,
0,39,0,0,0,0,0,0,0,0,0,0,0,0,0,0,0,0,0,0,0,0,0,0,0,0,0,0,0,0,0,0,0,0,0,0,0,0,0,0,
0,0,0,0,0,169,170,0,0,0,0,0,0,0,0,0,73,74,6,0,0,0,0,0,0,0,0,0,169,170,0,0,0,40,40,0,0,0,0,0,
0,0,0,0,0,202,203,0,0,0,0,0,0,0,0,0,0,0,0,0,0,0,0,0,0,0,0,0,202,203,0,0,73,40,74,0,0,0,0,0,
0,0,0,0,0,235,236,0,0,0,0,0,0,0,0,0,0,0,0,0,0,0,0,0,0,0,0,0,235,236,0,0,73,6,74,0,0,0,0,0,
0,0,0,0,0,268,269,0,0,0,0,0,0,0,0,0,0,0,0,0,0,0,0,0,0,0,0,0,268,269,0,0,0,0,0,0,0,0,0,0,
0,0,0,0,0,0,0,0,0,0,0,0,0,0,0,0,0,0,0,0,0,0,0,0,0,0,0,0,0,0,0,0,0,0,0,0,0,0,0,0,
0,0,0,0,0,0,0,0,0,0,0,0,0,0,0,0,0,0,0,0,0,0,0,0,0,0,0,0,0,0,0,0,0,0,0,0,0,0,0,0
</data>
 </layer>
 <layer id="3" name="Trees" width="40" height="30">
  <data encoding="csv">
0,0,0,0,0,0,0,0,0,0,0,0,0,0,0,0,0,0,0,0,0,0,0,0,0,0,0,0,0,0,0,0,0,0,0,0,0,0,0,0,
0,0,0,0,0,0,0,0,0,0,0,0,0,0,0,0,0,0,0,0,0,0,0,0,0,0,0,0,0,0,0,0,0,0,0,0,0,0,0,0,
0,0,0,0,0,0,0,0,0,0,0,0,0,0,0,0,0,0,0,0,0,0,0,932,933,934,0,0,0,0,0,0,0,0,0,0,0,0,0,0,
0,0,0,0,0,0,0,0,0,0,0,0,0,0,0,0,0,0,0,0,0,0,0,965,966,967,0,0,0,0,0,0,0,0,0,0,0,0,0,0,
0,0,0,0,0,0,0,0,0,0,0,0,0,0,0,0,0,0,0,0,0,0,0,998,999,1000,0,0,0,0,0,0,0,0,0,0,0,0,0,0,
0,0,0,0,0,0,0,0,0,0,0,0,0,0,0,0,0,0,0,0,0,0,0,1031,1032,1033,0,0,0,0,0,0,0,0,0,0,0,0,0,0,
0,0,0,0,0,0,0,0,0,0,0,0,0,0,0,0,0,0,0,0,0,0,0,0,0,0,0,0,0,0,0,0,0,0,0,0,0,0,0,0,
0,0,0,0,0,0,0,0,0,0,0,0,0,0,0,0,0,0,0,0,0,0,0,0,0,0,0,0,0,0,0,0,0,0,0,0,0,0,0,0,
0,0,0,0,0,0,0,0,0,0,0,0,0,0,0,0,0,0,0,0,0,0,0,0,0,0,0,0,0,0,0,0,0,0,0,0,0,0,0,0,
0,0,0,0,0,0,0,0,0,0,0,0,0,0,0,0,0,0,0,0,0,0,0,0,0,0,0,0,0,0,0,0,0,0,0,0,0,0,0,0,
0,661,662,663,0,0,0,0,0,0,0,0,0,0,0,0,0,0,0,0,0,0,0,0,0,0,0,0,0,0,0,0,0,0,0,0,0,0,0,0,
0,694,695,696,0,0,0,0,0,0,0,0,0,0,0,0,0,0,0,0,0,0,0,0,0,0,0,0,0,0,0,0,0,0,0,0,0,0,0,0,
0,727,728,729,0,0,0,0,0,0,0,0,0,0,0,0,0,0,0,0,0,0,0,0,0,0,0,0,0,0,0,0,0,0,0,0,0,0,0,0,
0,760,761,762,0,0,0,0,0,0,0,0,0,0,0,0,0,0,0,0,0,0,0,0,0,0,0,0,0,0,0,0,0,0,0,0,0,0,0,0,
0,0,0,0,0,0,0,0,0,0,1060,1061,1062,1063,0,0,0,0,0,0,0,0,0,0,0,0,0,0,0,0,0,0,0,0,0,0,0,0,0,0,
0,0,0,0,0,0,0,0,0,0,1093,1094,1095,1096,0,0,0,0,0,0,0,0,0,0,0,0,0,0,0,0,0,0,0,0,0,0,0,0,0,0,
0,0,0,0,0,0,0,0,0,0,1126,1127,1128,1129,0,0,0,0,0,0,0,0,0,0,0,0,0,0,0,0,0,0,0,0,0,0,0,0,0,0,
0,0,0,0,0,0,0,0,0,0,1159,1160,1161,1162,0,0,0,0,0,0,0,0,0,0,0,0,0,0,0,0,0,0,0,0,0,0,0,0,0,0,
0,0,0,0,0,0,0,0,0,0,0,0,0,0,0,0,0,0,0,0,0,0,0,0,0,0,0,0,0,0,0,0,0,0,0,0,0,0,0,0,
0,0,0,0,0,0,0,0,0,0,0,0,0,0,0,0,0,0,0,0,0,0,0,0,0,0,0,0,0,0,0,0,0,0,0,0,0,0,0,0,
0,0,0,0,0,0,0,0,0,0,0,0,0,0,0,0,0,0,0,0,0,0,0,0,0,0,0,0,0,0,0,0,0,0,0,0,0,0,0,0,
0,0,0,0,0,0,0,0,0,0,0,0,0,0,0,0,0,0,0,0,0,0,0,0,0,0,0,0,0,0,0,0,0,0,0,0,0,0,0,0,
0,0,0,0,0,0,0,0,0,0,0,0,0,0,0,0,0,0,0,0,0,0,0,0,0,0,0,0,0,0,0,0,0,0,0,0,0,0,0,0,
0,0,0,0,0,0,0,0,0,0,0,0,0,0,0,0,0,0,0,0,1060,1061,1062,1063,0,0,0,0,0,0,0,0,0,0,0,0,0,0,0,0,
0,0,0,0,0,0,0,0,0,0,0,0,0,0,0,0,0,0,0,0,1093,1094,1095,1096,0,0,0,0,0,0,0,0,0,0,0,0,0,0,0,0,
0,0,0,0,0,0,0,0,0,0,0,0,0,0,0,0,0,0,0,0,1126,1127,1128,1129,0,0,0,0,0,0,0,0,0,0,0,0,0,0,0,0,
0,0,0,0,0,0,0,0,0,0,0,0,0,0,0,0,0,0,0,0,1159,1160,1161,1162,0,0,0,0,0,0,0,0,0,0,0,0,0,0,0,0,
0,0,0,0,0,0,0,0,0,0,0,0,0,0,0,0,0,0,0,0,0,0,0,0,0,0,0,0,0,0,0,0,0,0,0,0,0,0,0,0,
0,0,0,0,0,0,0,0,0,0,0,0,0,0,0,0,0,0,0,0,0,0,0,0,0,0,0,0,0,0,0,0,0,0,0,0,0,0,0,0,
0,0,0,0,0,0,0,0,0,0,0,0,0,0,0,0,0,0,0,0,0,0,0,0,0,0,0,0,0,0,0,0,0,0,0,0,0,0,0,0
</data>
 </layer>
 <objectgroup id="4" name="Spawns">
  <object id="1" name="slimeSpawn" x="432" y="128">
   <point/>
  </object>
 </objectgroup>
</map>
